**kern	**silbe	**kern	**silbe
*ICvox	*	*ICvox	*
*g#:	*	*g#:	*
*M4/4	*	*M4/4	*
*clefG2	*	*clefG2	*
r;	.	r;	.
=1	=1	=1	=1
1r	.	1r	.
=2	=2	=2	=2
1r	.	1r	.
=3	=3	=3	=3
1r	.	1r	.
=4	=4	=4	=4
1r	.	1r	.
=5	=5	=5	=5
1r	.	1r	.
=6	=6	=6	=6
1r	.	1r	.
=7	=7	=7	=7
1r	.	1r	.
=8	=8	=8	=8
2r	.	1r	.
4.r	.	.	.
8G#	You	.	.
=9	=9	=9	=9
8.d#	must	1r	.
8.c#	un-	.	.
8G#	-der-	.	.
8B	-stand	.	.
8G#	_	.	.
8G#	though	.	.
8B	the	.	.
=10	=10	=10	=10
8.d#	touch	1r	.
8.c#	of	.	.
8G#	your	.	.
8B	hand	.	.
8G#	_	.	.
8G#	make	.	.
8B	my	.	.
=11	=11	=11	=11
8.c#	pulse	1r	.
8.f#	re-	.	.
16d#	-act	.	.
16c#	_	.	.
8d#	_	.	.
8r	.	.	.
4r	.	.	.
=12	=12	=12	=12
2r	.	1r	.
4r	.	.	.
8G#	That	.	.
8B	it's	.	.
=13	=13	=13	=13
8.d#	on-	1r	.
8c#	-ly	.	.
16B	the	.	.
8c#	_	.	.
8B	thrill	.	.
8G#	_	.	.
8r	.	.	.
8G#	of	.	.
=14	=14	=14	=14
8.d#	boy	1r	.
8.c#	meet-	.	.
8G#	-ing	.	.
8B	girl	.	.
8G#	_	.	.
8G#	op-	.	.
8B	-po-	.	.
=15	=15	=15	=15
8.c#	-sites	1r	.
8.f#	at-	.	.
16d#	-tract	.	.
16c#	_	.	.
8d#	_	.	.
8r	.	.	.
8r	.	.	.
8G#	It's	.	.
=16	=16	=16	=16
8.B	phys-	1r	.
8.c#	-i-	.	.
4c#	-cal	.	.
8d#	_	.	.
4r	.	.	.
=17	=17	=17	=17
2r	.	1r	.
4r	.	.	.
8d#	On-	.	.
8B	-ly	.	.
=18	=18	=18	=18
8.B	log-	1r	.
8.c#	-i-	.	.
4c#	-cal	.	.
16A#	_	.	.
16G#	_	.	.
8F#	_	.	.
8r	.	.	.
=19	=19	=19	=19
2r	.	1r	.
4r	.	.	.
8G#	You	.	.
8B	must	.	.
=20	=20	=20	=20
8.d#	try	1r	.
8.c#	to	.	.
8c#	ig-	.	.
8B	-nore	.	.
16G#	_	.	.
16r	.	.	.
8G#	that	.	.
8B	it	.	.
=21	=21	=21	=21
8.g#	means	1r	.
8f#	more	.	.
8.g#	than	.	.
8f#	that	.	.
8r	.	.	.
8b	Oh	.	.
8a#	_	.	.
=22	=22	=22	=22
8g#	_	1r	.
8r	.	.	.
4b	What's	.	.
8a#	love	.	.
8g#	_	.	.
8f#	got	.	.
16d#	to	.	.
16[f#	do	.	.
=23	=23	=23	=23
8f#]	_	1r	.
8r	.	.	.
8f#	got	.	.
16d#	to	.	.
16[f#	do	.	.
16f#]	_	.	.
16f#	with	.	.
8f#	it?	.	.
4r	.	.	.
=24	=24	=24	=24
4r	.	1r	.
8b	What's	.	.
8r	.	.	.
8a#	love	.	.
8g#	_	.	.
8r	.	.	.
16f#	but	.	.
16f#	a	.	.
=25	=25	=25	=25
8g#	se-	1r	.
8f#	-cond	.	.
8f#	hand	.	.
8g#	e-	.	.
4d#	-mo-	.	.
16c#	-tion	.	.
8.B	_	.	.
=26	=26	=26	=26
4r	.	1r	.
4b	What's	.	.
8a#	love	.	.
8g#	_	.	.
8f#	got	.	.
16d#	to	.	.
16[f#	do	.	.
=27	=27	=27	=27
8f#]	_	1r	.
8r	.	.	.
8f#	got	.	.
16d#	to	.	.
16[f#	do	.	.
16f#]	_	.	.
16f#	with	.	.
8f#	it?	.	.
4r	.	.	.
=28	=28	=28	=28
8.g#	Who	1r	.
8.f#	needs	.	.
8d#	a	.	.
8.g#	heart	.	.
8.f#	when	.	.
16d#	a	.	.
16r	.	.	.
=29	=29	=29	=29
8.g#	heart	1r	.
8.f#	can	.	.
8d#	be	.	.
8.g#	bro-	.	.
16f#	-ken?	.	.
8d#	_	.	.
8G#	It	.	.
=30	=30	=30	=30
16B	may	1r	.
8d#	_	.	.
8.c#	seem	.	.
8G#	to	.	.
16B	you	.	.
16G#	_	.	.
8r	.	.	.
16G#	that	.	.
8.B	I'm	.	.
=31	=31	=31	=31
8.d#	act-	1r	.
8c#	-ing	.	.
16B	con-	.	.
8c#	_	.	.
16B	-fused	.	.
8G#	_	.	.
16r	.	.	.
8G#	when	.	.
8B	you're	.	.
=32	=32	=32	=32
8.c#	close	1r	.
8.f#	to	.	.
16d#	me	.	.
16c#	_	.	.
4d#	_	.	.
4f#	_	.	.
=33	=33	=33	=33
2r	.	1r	.
4r	.	.	.
8G#	If	.	.
8B	I	.	.
=34	=34	=34	=34
8.d#	tend	1r	.
8c#	to	.	.
16B	look	.	.
8c#	_	.	.
16B	dazed	.	.
8.G#	_	.	.
8r	.	.	.
8G#	I	.	.
=35	=35	=35	=35
8.d#	read	1r	.
8c#	it	.	.
16B	some	.	.
8c#	_	.	.
16B	place	.	.
16G#	_	.	.
8r	.	.	.
8G#	I've	.	.
8B	got	.	.
=36	=36	=36	=36
8.c#	cause	1r	.
8.f#	to	.	.
16d#	be	.	.
16c#	_	.	.
8d#	_	.	.
8r	.	.	.
8r	.	.	.
16G#	There's	.	.
16B	a	.	.
=37	=37	=37	=37
8.B	name	1r	.
8.c#	for	.	.
4c#	it	.	.
8d#	_	.	.
4r	.	.	.
=38	=38	=38	=38
2r	.	1r	.
4r	.	.	.
8d#	There's	.	.
8B	a	.	.
=39	=39	=39	=39
8.B	phrase	1r	.
8.c#	to	.	.
4c#	fits	.	.
16A#	_	.	.
16G#	_	.	.
8.F#	_	.	.
16G#	_	.	.
=40	=40	=40	=40
2r	.	1r	.
4r	.	.	.
8G#	But	.	.
8B	what-	.	.
=41	=41	=41	=41
8.d#	-e-	1r	.
8c#	-ver	.	.
8B	the	.	.
16G#	_	.	.
8.B	rea-	.	.
8G#	-son	.	.
16r	.	.	.
8B	you	.	.
=42	=42	=42	=42
8.g#	do	1r	.
8.f#	it	.	.
8g#	for	.	.
8f#	me	.	.
8r	.	.	.
8b	Oh	.	.
8a#	_	.	.
=43	=43	=43	=43
8g#	_	1r	.
8r	.	.	.
4b	What's	.	.
8a#	love	.	.
8g#	_	.	.
8f#	got	.	.
16d#	to	.	.
16[f#	do	.	.
=44	=44	=44	=44
8f#]	_	1r	.
8r	.	.	.
8f#	got	.	.
16d#	to	.	.
16[f#	do	.	.
16f#]	_	.	.
16f#	with	.	.
8f#	it?	.	.
4r	.	.	.
=45	=45	=45	=45
4r	.	1r	.
4b	What's	.	.
8a#	love	.	.
8g#	_	.	.
8r	.	.	.
16f#	but	.	.
16f#	a	.	.
=46	=46	=46	=46
8g#	se-	1r	.
8f#	-cond	.	.
8f#	hand	.	.
8g#	e-	.	.
4d#	-mo-	.	.
16c#	-tion	.	.
8.B	_	.	.
=47	=47	=47	=47
4r	.	1r	.
4b	What's	.	.
8a#	love	.	.
8g#	_	.	.
8f#	got	.	.
16d#	to	.	.
16[f#	do	.	.
=48	=48	=48	=48
8f#]	_	1r	.
8r	.	.	.
8f#	got	.	.
16d#	to	.	.
16[f#	do	.	.
16f#]	_	.	.
16f#	with	.	.
8f#	it?	.	.
4r	.	.	.
=49	=49	=49	=49
8.g#	Who	1r	.
8.f#	needs	.	.
8d#	a	.	.
8.g#	heart	.	.
8f#	when	.	.
16d#	a	.	.
8r	.	.	.
=50	=50	=50	=50
8.g#	heart	1r	.
8.f#	can	.	.
8d#	be	.	.
4g#	bro-	.	.
8f#	-ken?	.	.
8d#	_	.	.
=51	=51	=51	=51
*C#:	*	*C#:	*
2.r	.	1r	.
4[cc#	Huh	.	.
=52	=52	=52	=52
2cc#_	_	1r	.
8cc#]	_	.	.
16a#	_	.	.
16g#	_	.	.
4r	.	.	.
=53	=53	=53	=53
1r	.	1r	.
=54	=54	=54	=54
1r	.	1r	.
=55	=55	=55	=55
1r	.	1r	.
=56	=56	=56	=56
1r	.	1r	.
=57	=57	=57	=57
1r	.	1r	.
=58	=58	=58	=58
*M2/4	*	*M2/4	*
2r	.	2r	.
=59	=59	=59	=59
*M4/4	*	*M4/4	*
4r	.	1r	.
8f#	I've	.	.
8f#	been	.	.
8f#	ta-	.	.
8f#	-king	.	.
8f#	on	.	.
8f#	a	.	.
=60	=60	=60	=60
4g#	new	1r	.
4e#	di-	.	.
16e#	-rec-	.	.
16d#	_	.	.
8[c#	-tion	.	.
8.c#]	_	.	.
16d#	_	.	.
=61	=61	=61	=61
4r	.	1r	.
16r	.	.	.
16c#	But	.	.
8c#	I	.	.
8.a#	have	.	.
8g#	_	.	.
16g#	to	.	.
8[e#	say	.	.
=62	=62	=62	=62
16e#]	_	1r	.
16d#	_	.	.
4.c#	_	.	.
2r	.	.	.
=63	=63	=63	=63
4r	.	1r	.
8e	I've	.	.
8e	been	.	.
8e	think-	.	.
16e	-ing	.	.
16e	a-	.	.
8e	-bout	.	.
8e	my	.	.
=64	=64	=64	=64
4f#	own	1r	.
8d#	pro-	.	.
8c#	_	.	.
8c#	-tec-	.	.
8B	-tion	.	.
8r	.	.	.
8B	It	.	.
=65	=65	=65	=65
4f#	scares	1r	.
8f#	me	.	.
8f#	to	.	.
8f#	think	.	.
4b	this	.	.
16g#	way	.	.
16f#	_	.	.
=66	=66	=66	=66
2g#	_	1r	.
4r	.	.	.
8cc#	Oh	.	.
8b#	_	.	.
=67	=67	=67	=67
8a#	_	1r	.
8r	.	.	.
4cc#	What's	.	.
8b#	love	.	.
8a#	_	.	.
8g#	got	.	.
16e#	to	.	.
16[g#	do	.	.
=68	=68	=68	=68
8g#]	_	1r	.
8r	.	.	.
8g#	got	.	.
16e#	to	.	.
16[g#	do	.	.
16g#]	_	.	.
16g#	with	.	.
8g#	it?	.	.
4r	.	.	.
=69	=69	=69	=69
4r	.	1r	.
4cc#	What's	.	.
8b#	love	.	.
8a#	_	.	.
8r	.	.	.
16g#	but	.	.
16g#	a	.	.
=70	=70	=70	=70
8a#	se-	1r	.
8g#	-cond	.	.
8g#	hand	.	.
8a#	e-	.	.
4e#	-mo-	.	.
16d#	-tion	.	.
8.c#	_	.	.
=71	=71	=71	=71
4r	.	1r	.
4cc#	What's	.	.
8b#	love	.	.
8a#	_	.	.
8g#	got	.	.
16e#	to	.	.
16[g#	do	.	.
=72	=72	=72	=72
8g#]	_	1r	.
8r	.	.	.
8g#	got	.	.
16e#	to	.	.
16[g#	do	.	.
16g#]	_	.	.
16g#	with	.	.
8g#	it?	.	.
4r	.	.	.
=73	=73	=73	=73
8.a#	Who	1r	.
8.g#	needs	.	.
8e#	a	.	.
8.a#	heart	.	.
8.g#	when	.	.
8e#	a	.	.
=74	=74	=74	=74
*M2/4	*	*M2/4	*
8.a#	heart	2r	.
8.g#	can	.	.
8e#	be	.	.
=75	=75	=75	=75
*M4/4	*	*M4/4	*
4a#	bro-	4r	.
16g#	-ken	4cc#	What's
16a#	_	.	.
8r	.	.	.
4r	.	8b#	love
.	.	8a#	_
8g#	got	4r	.
16e#	to	.	.
16[g#	do	.	.
=76	=76	=76	=76
8g#]	_	4r	.
8r	.	.	.
8g#	got	8g#	got
16e#	to	16e#	to
16[g#	do	16[g#	do
16g#]	_	16g#]	_
16g#	with	16g#	with
8g#	it?	8g#	it?
4r	.	4r	.
=77	=77	=77	=77
4r	.	4r	.
8cc#	What's?	4cc#	What's
8cc#	_	.	.
4dd#	love	8b#	love
.	.	8a#	_
8r	.	4r	.
16g#	but	.	.
16g#	a	.	.
=78	=78	=78	=78
8a#	sweet	1r	.
8g#	old	.	.
8g#	fa-	.	.
8a#	-shion	.	.
4e#	no-	.	.
16d#	-tion	.	.
8.c#	_	.	.
=79	=79	=79	=79
4r	.	4r	.
4cc#	What's	4cc#	What's
8b#	love	8b#	love
8a#	_	8a#	_
8g#	got	4r	.
16e#	to	.	.
16[a#	do	.	.
=80	=80	=80	=80
8a#]	_	4r	.
8r	.	.	.
8g#	got	8g#	got
16e#	to	16e#	to
16[g#	do	16[g#	do
16g#]	_	16g#]	_
16g#	with	16g#	with
8g#	it?	8g#	it?
4r	.	4r	.
=81	=81	=81	=81
8.a#	Who	1r	.
8.g#	needs	.	.
8e#	a	.	.
8a#	heart	.	.
8r	.	.	.
16r	.	.	.
16e#	when	.	.
16e#	a	.	.
16r	.	.	.
=82	=82	=82	=82
*M2/4	*	*M2/4	*
8.a#	heart	2r	.
8.g#	can	.	.
8e#	be	.	.
=83	=83	=83	=83
*M4/4	*	*M4/4	*
4a#	bro-	4r	.
16g#	-ken	4cc#	What's
16e#	_	.	.
8r	.	.	.
2r	.	8b#	love
.	.	8r	.
.	.	8g#	got
.	.	16e#	to
.	.	16[g#	do
=84	=84	=84	=84
4r	.	8g#]	_
.	.	8r	.
4.cc#	Ooh	4r	.
.	.	2r	.
16a#	_	.	.
16r	.	.	.
8cc#	got	.	.
16a#	to	.	.
16[cc#	do	.	.
=85	=85	=85	=85
16cc#]	_	4r	.
16cc#	with	.	.
8a#	it?	.	.
4r	.	4cc#	What's
2r	.	4b#	love
.	.	8r	.
.	.	16g#	but
.	.	16g#	a
=86	=86	=86	=86
1r	.	8a#	se-
.	.	8g#	-cond
.	.	8g#	hand
.	.	8a#	e-
.	.	4e#	-mo-
.	.	16d#	-tion
.	.	8.c#	_
=87	=87	=87	=87
4r	.	1r	.
4cc#	What's	.	.
8b#	love	.	.
8a#	_	.	.
8g#	got	.	.
16e#	to	.	.
16[g#	do	.	.
=88	=88	=88	=88
8g#]	_	1r	.
8r	.	.	.
8g#	got	.	.
16e#	to	.	.
16[g#	do	.	.
16g#]	_	.	.
16g#	with	.	.
8g#	it?	.	.
4r	.	.	.
=89	=89	=89	=89
8.a#	Who	1r	.
8.g#	takes	.	.
8e#	a	.	.
8.a#	heart	.	.
8g#	when	.	.
8e#	a	.	.
16r	.	.	.
=90	=90	=90	=90
*M2/4	*	*M2/4	*
8.a#	heart	2r	.
8.g#	can	.	.
8e#	be	.	.
=91	=91	=91	=91
*M4/4	*	*M4/4	*
4a#	bro-	4r	.
16g#	-ken	4cc#	What's
16a#	_	.	.
8r	.	.	.
4r	.	8b#	love
.	.	8r	.
8ee	Ooh	4r	.
8dd#	_	.	.
=92	=92	=92	=92
16cc#	ooh	4r	.
16dd#	_	.	.
8r	.	.	.
4r	.	8g#	got
.	.	16e#	to
.	.	16[g#	do
4r	.	16g#]	_
.	.	16g#	with
.	.	8g#	it?
8cc#	got	4r	.
16a#	to	.	.
16[cc#	do	.	.
=93	=93	=93	=93
16cc#]	_	4r	.
16a#	with	.	.
8a#	it?	.	.
4r	.	4cc#	What's
4.r	.	8b#	love
.	.	8r	.
.	.	4r	.
16a#	but	.	.
16a#	a	.	.
=94	=94	=94	=94
8cc#	se-	1r	.
8a#	-cond	.	.
8a#	hand	.	.
8a#	e-	.	.
4cc#	-mo-	.	.
4dd#	-tion	.	.
r;	.	r;	.
r;	.	r;	.
*-	*-	*-	*-
!!!ENC: Nathaniel Condit-Schultz